src/assets/outline/Frame4.svg

<svg width="24" height="24" viewBox="0 0 24 24"  xmlns="http://www.w3.org/2000/svg">
<path d="M19.2598 19.65C18.8498 19.65 18.5098 19.31 18.5098 18.9V7.1C18.5098 6.09 18.2998 5.75 17.0298 5.75H15.9898C14.7198 5.75 14.5098 6.09 14.5098 7.1V18.9C14.5098 19.31 14.1698 19.65 13.7598 19.65C13.3498 19.65 13.0098 19.31 13.0098 18.9V7.1C13.0098 5.18 13.9898 4.25 15.9898 4.25H17.0298C19.0398 4.25 20.0098 5.18 20.0098 7.1V18.9C20.0098 19.31 19.6698 19.65 19.2598 19.65Z" />
<path d="M10.7598 19.65C10.3498 19.65 10.0098 19.31 10.0098 18.9V12.1C10.0098 11.09 9.79977 10.75 8.52977 10.75H7.48977C6.21977 10.75 6.00977 11.09 6.00977 12.1V18.9C6.00977 19.31 5.66977 19.65 5.25977 19.65C4.84977 19.65 4.50977 19.31 4.50977 18.9V12.1C4.50977 10.18 5.48977 9.25 7.48977 9.25H8.52977C10.5398 9.25 11.5098 10.18 11.5098 12.1V18.9C11.5098 19.31 11.1698 19.65 10.7598 19.65Z" />
<path d="M22 19.75H2C1.59 19.75 1.25 19.41 1.25 19C1.25 18.59 1.58 18.25 2 18.25H22C22.41 18.25 22.75 18.59 22.75 19C22.75 19.41 22.42 19.75 22 19.75Z" />
</svg>

<?xml version="1.0" encoding="UTF-8"?>
<svg width="24" height="24" viewBox="0 0 24 24" xmlns="http://www.w3.org/2000/svg">
 <path d="m19.26 19.65c-0.41 0-0.75-0.34-0.75-0.75v-11.8c0-1.01-0.21-1.35-1.48-1.35h-1.04c-1.27 0-1.48 0.34-1.48 1.35v11.8c0 0.41-0.34 0.75-0.75 0.75s-0.75-0.34-0.75-0.75v-11.8c0-1.92 0.98-2.85 2.98-2.85h1.04c2.01 0 2.98 0.93 2.98 2.85v11.8c0 0.41-0.34 0.75-0.75 0.75z"/>
 <path d="m10.76 19.65c-0.41 0-0.75-0.34-0.75-0.75v-6.8c0-1.01-0.21003-1.35-1.48-1.35h-1.04c-1.27 0-1.48 0.34-1.48 1.35v6.8c0 0.41-0.34 0.75-0.75 0.75s-0.75-0.34-0.75-0.75v-6.8c0-1.92 0.98-2.85 2.98-2.85h1.04c2.01 0 2.98 0.93 2.98 2.85v6.8c0 0.41-0.34 0.75-0.75 0.75z"/>
 <path d="m22 19.75h-20c-0.41 0-0.75-0.34-0.75-0.75s0.33-0.75 0.75-0.75h20c0.41 0 0.75 0.34 0.75 0.75s-0.33 0.75-0.75 0.75z"/>
</svg>
